images/icons/youtube_icon_large.svg

<svg width="35" height="35" viewBox="0 0 35 35" fill="none" xmlns="http://www.w3.org/2000/svg">
<circle cx="17.5" cy="17.5" r="17.5" fill="#FF0000"/>
<path d="M15.5379 20.4432L20.6296 17.5L15.5379 14.5568V20.4432ZM26.879 12.7615C27.0065 13.2226 27.0948 13.8406 27.1537 14.6255C27.2224 15.4103 27.2518 16.0873 27.2518 16.6759L27.3107 17.5C27.3107 19.6485 27.1537 21.228 26.879 22.2385C26.6337 23.1215 26.0647 23.6905 25.1818 23.9358C24.7207 24.0633 23.877 24.1516 22.582 24.2104C21.3066 24.2791 20.1391 24.3086 19.0599 24.3086L17.5001 24.3674C13.3894 24.3674 10.8288 24.2104 9.81835 23.9358C8.9354 23.6905 8.36638 23.1215 8.12112 22.2385C7.99358 21.7774 7.90529 21.1593 7.84642 20.3745C7.77775 19.5897 7.74832 18.9127 7.74832 18.3241L7.68945 17.5C7.68945 15.3515 7.84642 13.772 8.12112 12.7615C8.36638 11.8785 8.9354 11.3095 9.81835 11.0642C10.2795 10.9367 11.1232 10.8484 12.4182 10.7895C13.6935 10.7209 14.861 10.6914 15.9402 10.6914L17.5001 10.6326C21.6107 10.6326 24.1713 10.7895 25.1818 11.0642C26.0647 11.3095 26.6337 11.8785 26.879 12.7615Z" fill="white"/>
</svg>

<svg xmlns="http://www.w3.org/2000/svg" width="35" height="35" fill="none"><circle cx="17.5" cy="17.5" r="17.5" fill="red"/><path fill="#fff" d="M15.538 20.443 20.63 17.5l-5.092-2.943v5.886zm11.341-7.682c.127.461.216 1.079.275 1.864l.098 2.05.059.824c0 2.148-.157 3.728-.432 4.738-.245.883-.814 1.452-1.697 1.697-.461.128-1.305.216-2.6.275l-3.522.098-1.56.059c-4.111 0-6.671-.157-7.682-.432-.883-.245-1.452-.814-1.697-1.697-.128-.461-.216-1.079-.275-1.864l-.098-2.05-.059-.824c0-2.149.157-3.728.432-4.738.245-.883.814-1.452 1.697-1.697.461-.127 1.305-.216 2.6-.275l3.522-.098 1.56-.059c4.111 0 6.671.157 7.682.432.883.245 1.452.814 1.697 1.697z"/></svg>
